X:150
T:Rigaudon (de Marseille)
T:Branle de Saint Elme
O:France
A:Provence
C:Trad.
R:Rigaudon
M:2/4
L:1/8
Q:1/4=90
K:Bbmajor
FF GG|(B/A/)G/F/ BF|BA/B/ cd/B/|ed c2|FF GG|(B/A/)G/F/ BF|BA/B/ c/d/e/f/|AG F2|:
ff fe/d/|cd ec|ee ed/c/|Bc d2|(B/A/)G/F/ (B/A/)G/F/|(B/A/)G/F/ B2|(c/d/)e/c/ (e/d/)c/B/|(d/c/)B/A/ B2:|
<end>
<start>
